zondicons/svg/view-list.svg

<svg xmlns="http://www.w3.org/2000/svg" viewBox="0 0 20 20"><path d="M0 3h20v2H0V3zm0 4h20v2H0V7zm0 4h20v2H0v-2zm0 4h20v2H0v-2z"/></svg>

<svg width="20px" height="20px" viewBox="0 0 20 20" version="1.1" xmlns="http://www.w3.org/2000/svg" xmlns:xlink="http://www.w3.org/1999/xlink"><title>view-list</title><desc>Created with Sketch.</desc><defs></defs><g id="Page-1" stroke="none" stroke-width="1" fill="none" fill-rule="evenodd"><g id="view-list" fill="#000000"><path d="M0,3 L20,3 L20,5 L0,5 L0,3 Z M0,7 L20,7 L20,9 L0,9 L0,7 Z M0,11 L20,11 L20,13 L0,13 L0,11 Z M0,15 L20,15 L20,17 L0,17 L0,15 Z" id="Combined-Shape"></path></g></g></svg>
